;START_OF_HEADER
;HEADER_VERSION:0.1
;FLAVOR:Griffin
;GENERATOR.NAME:Cura_SteamEngine
;GENERATOR.VERSION:2.3.1
;GENERATOR.BUILD_DATE:2016-11-04
;TARGET_MACHINE.NAME:Ultimaker 3 Extended
;EXTRUDER_TRAIN.0.INITIAL_TEMPERATURE:210
;EXTRUDER_TRAIN.0.MATERIAL.VOLUME_USED:8671
;EXTRUDER_TRAIN.0.MATERIAL.GUID:506c9f0d-e3aa-4bd4-b2d2-23e2425b1aa9
;EXTRUDER_TRAIN.0.NOZZLE.DIAMETER:0.4
;EXTRUDER_TRAIN.1.INITIAL_TEMPERATURE:100
;EXTRUDER_TRAIN.1.MATERIAL.VOLUME_USED:75
;EXTRUDER_TRAIN.1.MATERIAL.GUID:86a89ceb-4159-47f6-ab97-e9953803d70f
;EXTRUDER_TRAIN.1.NOZZLE.DIAMETER:0.4
;BUILD_PLATE.INITIAL_TEMPERATURE:60
;PRINT.TIME:8881
;PRINT.SIZE.MIN.X:0
;PRINT.SIZE.MIN.Y:0
;PRINT.SIZE.MIN.Z:0
;PRINT.SIZE.MAX.X:215
;PRINT.SIZE.MAX.Y:215
;PRINT.SIZE.MAX.Z:300
;END_OF_HEADER
;Generated with Cura_SteamEngine 2.3.1

T0
G92 E0

M109 S210
G0 F6000 X181 Y2.1 Z2
G280
G1 F1500 E-6.5
;LAYER_COUNT:26
;LAYER:0
M107
M204 S125
M205 X6
G1 Z4
G0 F2400 X90.92 Y75.323 Z2.27
M205 X5
;TYPE:SKIRT
G1 Z.27
G1 F1500 E0
G1 F1200 X91.14 Y75.11 E0.00454
G1 X93.494 Y73.022 E0.05115
G1 X93.735 Y72.826 E0.05575
G1 X96.286 Y70.937 E0.10277
G1 X96.541 Y70.765 E0.10733
G1 X99.173 Y69.151 E0.15306
G1 X99.405 Y69.021 E0.157
G1 X101.556 Y67.916 E0.19282
G1 X101.772 Y67.814 E0.19636
G1 X103.965 Y66.869 E0.23174
G1 X104.216 Y66.772 E0.23572
G1 X107.157 Y65.763 E0.28178
G1 X107.485 Y65.668 E0.28684
G1 X111.276 Y64.766 E0.34456
G1 X111.584 Y64.707 E0.34921
G1 X113.994 Y64.356 E0.38529
G1 X114.266 Y64.327 E0.38934
G1 X117.473 Y64.112 E0.43695
G1 X117.781 Y64.105 E0.44151
G1 X120.855 Y64.168 E0.48706
G1 X121.161 Y64.187 E0.4916
G1 X124.299 Y64.525 E0.53836
G1 X124.64 Y64.579 E0.54347
G1 X128.431 Y65.369 E0.60083
G1 X128.723 Y65.443 E0.6053
G1 X130.995 Y66.123 E0.64043
G1 X131.224 Y66.2 E0.644
G1 X133.497 Y67.054 E0.67997
G1 X133.742 Y67.157 E0.68391
G1 X136.532 Y68.453 E0.72948
G1 X136.806 Y68.595 E0.73405
G1 X139.572 Y70.188 E0.78134
G1 X139.835 Y70.355 E0.78595
G1 X142.45 Y72.186 E0.83324
G1 X142.695 Y72.375 E0.83782
G1 X145.071 Y74.371 E0.88379
G1 X145.297 Y74.577 E0.88832
G1 X147.528 Y76.808 E0.93506
G1 X147.738 Y77.038 E0.93967
G1 X149.787 Y79.486 E0.98696
G1 X149.974 Y79.731 E0.99153
G1 X151.744 Y82.266 E1.03733
G1 X151.907 Y82.522 E1.04182
G1 X153.464 Y85.219 E1.08795
G1 X153.605 Y85.49 E1.09248
G1 X154.926 Y88.321 E1.13876
G1 X155.047 Y88.613 E1.14344
G1 X156.177 Y91.737 E1.19265
G1 X156.28 Y92.074 E1.19787
G1 X157.23 Y95.842 E1.25543
G1 X157.292 Y96.144 E1.26
G1 X157.665 Y98.463 E1.29479
G1 X157.697 Y98.725 E1.2987
G1 X157.958 Y101.802 E1.34445
G1 X157.971 Y102.106 E1.34895
G1 X157.966 Y105.282 E1.396
G1 X157.951 Y105.596 E1.40066
G1 X157.662 Y108.765 E1.4478
G1 X157.622 Y109.068 E1.45232
G1 X157.082 Y112.077 E1.49761
G1 X157.023 Y112.342 E1.50163
G1 X156.405 Y114.715 E1.53795
G1 X156.34 Y114.936 E1.54137
G1 X155.616 Y117.12 E1.57545
G1 X155.522 Y117.371 E1.57942
G1 X154.299 Y120.295 E1.62637
G1 X154.167 Y120.576 E1.63097
G1 X152.692 Y123.38 E1.6779
G1 X152.534 Y123.65 E1.68254
G1 X150.817 Y126.312 E1.72946
G1 X150.686 Y126.501 E1.73287
G1 X149.75 Y127.763 E1.75614
G1 X149.607 Y127.944 E1.75956
G1 X147.574 Y130.34 E1.80611
G1 X147.365 Y130.565 E1.81066
G1 X145.16 Y132.746 E1.8566
G1 X144.931 Y132.954 E1.86118
G1 X142.463 Y135 E1.90867
G1 X142.214 Y135.188 E1.91329
G1 X139.575 Y137.007 E1.96077
G1 X139.31 Y137.173 E1.9654
G1 X136.547 Y138.736 E2.01243
G1 X136.271 Y138.876 E2.01701
G1 X133.463 Y140.154 E2.06271
G1 X133.185 Y140.267 E2.06716
G1 X130.283 Y141.3 E2.11279
G1 X129.989 Y141.39 E2.11734
G1 X126.886 Y142.198 E2.16484
G1 X126.62 Y142.257 E2.16888
G1 X124.316 Y142.67 E2.20355
G1 X124.05 Y142.707 E2.20753
G1 X120.918 Y143.025 E2.25416
G1 X120.609 Y143.043 E2.25875
G1 X117.396 Y143.086 E2.30635
G1 X117.082 Y143.076 E2.311
G1 X113.952 Y142.838 E2.3575
G1 X113.654 Y142.802 E2.36195
G1 X110.674 Y142.318 E2.40667
G1 X110.368 Y142.255 E2.4113
G1 X107.141 Y141.432 E2.46063
G1 X106.84 Y141.34 E2.46529
G1 X103.922 Y140.311 E2.51113
G1 X103.643 Y140.2 E2.51558
G1 X100.864 Y138.945 E2.56074
G1 X100.595 Y138.809 E2.56521
G1 X97.876 Y137.289 E2.61135
G1 X97.606 Y137.122 E2.61606
G1 X94.844 Y135.233 E2.66562
G1 X94.591 Y135.042 E2.67032
G1 X92.193 Y133.064 E2.71637
G1 X91.997 Y132.89 E2.72025
G1 X90.333 Y131.295 E2.75439
G1 X90.145 Y131.101 E2.7584
G1 X88.051 Y128.761 E2.80491
G1 X87.856 Y128.522 E2.80948
G1 X85.939 Y125.961 E2.85687
G1 X85.766 Y125.707 E2.86142
G1 X84.153 Y123.107 E2.90675
G1 X84.019 Y122.872 E2.91075
G1 X82.9 Y120.714 E2.94676
G1 X82.802 Y120.508 E2.95014
G1 X81.874 Y118.395 E2.98433
G1 X81.786 Y118.178 E2.9878
G1 X80.964 Y115.907 E3.02357
G1 X80.882 Y115.647 E3.02761
G1 X80.045 Y112.623 E3.07409
G1 X79.983 Y112.361 E3.07808
G1 X79.522 Y110.008 E3.1136
G1 X79.48 Y109.742 E3.11759
G1 X79.121 Y106.689 E3.16312
G1 X79.099 Y106.386 E3.16762
G1 X79.001 Y103.214 E3.21463
G1 X79.005 Y102.902 E3.21926
G1 X79.187 Y99.747 E3.26607
G1 X79.218 Y99.439 E3.27066
G1 X79.676 Y96.314 E3.31744
G1 X79.735 Y96.01 E3.32203
G1 X80.467 Y92.931 E3.36891
G1 X80.551 Y92.633 E3.3735
G1 X81.545 Y89.647 E3.42012
G1 X81.655 Y89.36 E3.42467
G1 X82.897 Y86.489 E3.47101
G1 X83.031 Y86.214 E3.47554
G1 X84.521 Y83.456 E3.52198
G1 X84.683 Y83.185 E3.52665
G1 X86.49 Y80.455 E3.57515
G1 X86.671 Y80.206 E3.57971
G1 X88.553 Y77.841 E3.62448
G1 X88.752 Y77.612 E3.62898
G1 X90.92 Y75.323 E3.67568
M205 X6
G0 F2400 X91.174 Y75.564
M205 X5
G1 F1200 X91.372 Y75.372 E3.67976
G1 X93.726 Y73.284 E3.72637
G1 X93.944 Y73.107 E3.73053
G1 X96.495 Y71.218 E3.77756
G1 X96.724 Y71.063 E3.78165
G1 X99.356 Y69.449 E3.82739
G1 X99.565 Y69.332 E3.83094
G1 X101.716 Y68.227 E3.86676
G1 X101.911 Y68.135 E3.86995
G1 X104.104 Y67.19 E3.90532
G1 X104.33 Y67.103 E3.90891
G1 X107.271 Y66.094 E3.95497
G1 X107.566 Y66.008 E3.95952
G1 X111.357 Y65.106 E4.01725
G1 X111.634 Y65.053 E4.02143
G1 X114.044 Y64.702 E4.0575
G1 X114.29 Y64.676 E4.06117
G1 X117.497 Y64.461 E4.10878
G1 X117.774 Y64.455 E4.11288
G1 X120.848 Y64.518 E4.15843
G1 X121.123 Y64.535 E4.16251
G1 X124.261 Y64.873 E4.20926
G1 X124.569 Y64.922 E4.21388
G1 X128.36 Y65.712 E4.27125
G1 X128.622 Y65.778 E4.27525
G1 X130.894 Y66.458 E4.31038
G1 X131.101 Y66.528 E4.31362
G1 X133.374 Y67.382 E4.34959
G1 X133.595 Y67.474 E4.35313
G1 X136.385 Y68.77 E4.3987
G1 X136.632 Y68.899 E4.40283
G1 X139.398 Y70.492 E4.45011
G1 X139.634 Y70.642 E4.45426
G1 X142.249 Y72.473 E4.50154
G1 X142.47 Y72.643 E4.50567
G1 X144.846 Y74.639 E4.55164
G1 X145.049 Y74.825 E4.55572
G1 X147.28 Y77.056 E4.60246
G1 X147.47 Y77.263 E4.60662
G1 X149.519 Y79.711 E4.65391
G1 X149.687 Y79.931 E4.65801
G1 X151.457 Y82.466 E4.70381
G1 X151.604 Y82.697 E4.70787
G1 X153.161 Y85.394 E4.754
G1 X153.288 Y85.638 E4.75807
G1 X154.609 Y88.469 E4.80435
G1 X154.718 Y88.732 E4.80857
G1 X155.848 Y91.856 E4.85778
G1 X155.941 Y92.16 E4.86249
G1 X156.891 Y95.928 E4.92005
G1 X156.947 Y96.2 E4.92416
G1 X157.32 Y98.519 E4.95896
G1 X157.349 Y98.755 E4.96248
G1 X157.61 Y101.832 E5.00822
G1 X157.621 Y102.105 E5.01227
G1 X157.616 Y105.281 E5.05932
G1 X157.603 Y105.564 E5.06352
G1 X157.314 Y108.733 E5.11065
G1 X157.277 Y109.006 E5.11473
G1 X156.737 Y112.015 E5.16002
G1 X156.685 Y112.254 E5.16364
G1 X156.067 Y114.627 E5.19997
G1 X156.008 Y114.826 E5.20304
G1 X155.284 Y117.01 E5.23713
G1 X155.199 Y117.236 E5.2407
G1 X153.976 Y120.16 E5.28765
G1 X153.857 Y120.413 E5.29179
G1 X152.382 Y123.217 E5.33873
G1 X152.24 Y123.46 E5.3429
G1 X150.523 Y126.122 E5.38982
G1 X150.405 Y126.292 E5.39289
G1 X149.469 Y127.554 E5.41616
G1 X149.34 Y127.717 E5.41924
G1 X147.307 Y130.113 E5.46579
G1 X147.119 Y130.316 E5.46989
G1 X144.914 Y132.497 E5.51583
G1 X144.707 Y132.684 E5.51996
G1 X142.239 Y134.73 E5.56745
G1 X142.015 Y134.9 E5.57161
G1 X139.376 Y136.719 E5.61909
G1 X139.137 Y136.868 E5.62327
G1 X136.374 Y138.431 E5.67029
G1 X136.126 Y138.558 E5.67442
G1 X133.318 Y139.836 E5.72012
G1 X133.068 Y139.937 E5.72411
G1 X130.166 Y140.97 E5.76974
G1 X129.901 Y141.052 E5.77385
G1 X126.798 Y141.86 E5.82135
G1 X126.558 Y141.912 E5.82499
G1 X124.254 Y142.325 E5.85966
G1 X124.015 Y142.359 E5.86324
G1 X120.883 Y142.677 E5.90987
G1 X120.604 Y142.693 E5.91401
G1 X117.391 Y142.736 E5.96161
G1 X117.108 Y142.727 E5.96581
G1 X113.978 Y142.489 E6.01231
G1 X113.71 Y142.457 E6.0163
G1 X110.73 Y141.973 E6.06103
G1 X110.454 Y141.916 E6.0652
G1 X107.227 Y141.093 E6.11453
G1 X106.956 Y141.01 E6.11873
G1 X104.038 Y139.981 E6.16457
G1 X103.787 Y139.881 E6.16857
G1 X101.008 Y138.626 E6.21374
G1 X100.766 Y138.503 E6.21776
G1 X98.047 Y136.983 E6.2639
G1 X97.804 Y136.833 E6.26813
G1 X95.042 Y134.944 E6.3177
G1 X94.814 Y134.772 E6.32193
G1 X92.416 Y132.794 E6.36798
G1 X92.239 Y132.637 E6.37148
G1 X90.575 Y131.042 E6.40563
G1 X90.406 Y130.867 E6.40923
G1 X88.312 Y128.527 E6.45575
G1 X88.136 Y128.313 E6.45985
G1 X86.219 Y125.752 E6.50724
G1 X86.063 Y125.523 E6.51134
G1 X84.45 Y122.923 E6.55667
G1 X84.329 Y122.711 E6.56028
G1 X83.21 Y120.553 E6.59629
G1 X83.122 Y120.368 E6.59933
G1 X82.194 Y118.255 E6.63352
G1 X82.116 Y118.059 E6.63664
G1 X81.294 Y115.788 E6.67242
G1 X81.219 Y115.554 E6.67606
G1 X80.382 Y112.53 E6.72254
G1 X80.326 Y112.293 E6.72614
G1 X79.865 Y109.94 E6.76166
G1 X79.828 Y109.701 E6.76524
G1 X79.469 Y106.648 E6.81078
G1 X79.449 Y106.375 E6.81484
G1 X79.351 Y103.203 E6.86185
G1 X79.354 Y102.922 E6.86601
G1 X79.536 Y99.767 E6.91282
G1 X79.565 Y99.49 E6.91695
G1 X80.023 Y96.365 E6.96373
G1 X80.075 Y96.091 E6.96787
G1 X80.807 Y93.012 E7.01475
G1 X80.884 Y92.743 E7.01889
G1 X81.878 Y89.757 E7.06551
G1 X81.976 Y89.499 E7.0696
G1 X83.218 Y86.628 E7.11594
G1 X83.339 Y86.38 E7.12003
G1 X84.829 Y83.622 E7.16646
G1 X84.974 Y83.379 E7.17065
G1 X86.781 Y80.649 E7.21915
G1 X86.945 Y80.424 E7.22327
G1 X88.827 Y78.059 E7.26805
G1 X89.006 Y77.853 E7.27209
G1 X91.174 Y75.564 E7.31879
M205 X6
G1 F1500 E0.81879
G0 F2400 X93.75 Y78.231
G0 X93.767 Y78.578
M205 X5
;TYPE:WALL-INNER
G1 F1500 E7.31879
G1 F1200 X94.329 Y78.035 E7.32871
G1 X94.891 Y77.514 E7.33844
G1 X95.462 Y77.009 E7.34812
G1 X96.053 Y76.508 E7.35796
G1 X96.656 Y76.019 E7.36782
G1 X97.258 Y75.553 E7.37748
G1 X97.888 Y75.087 E7.38743
G1 X98.505 Y74.65 E7.39703
G1 X99.151 Y74.216 E7.40692
G1 X99.795 Y73.801 E7.41664
G1 X100.453 Y73.398 E7.42644
G1 X101.116 Y73.013 E7.43618
G1 X101.787 Y72.64 E7.44592
G1 X102.47 Y72.282 E7.45571
G1 X103.175 Y71.931 E7.46571
G1 X103.855 Y71.61 E7.47526
G1 X104.564 Y71.296 E7.48511
G1 X105.283 Y70.995 E7.495
G1 X105.987 Y70.717 E7.50461
G1 X106.723 Y70.447 E7.51457
G1 X107.442 Y70.2 E7.52422
G1 X108.18 Y69.966 E7.53405
G1 X108.921 Y69.747 E7.54386
G1 X109.66 Y69.545 E7.55359
G1 X110.399 Y69.362 E7.56326
G1 X111.158 Y69.193 E7.57313
G1 X111.92 Y69.039 E7.583
G1 X112.681 Y68.901 E7.59282
G1 X113.444 Y68.781 E7.60263
G1 X114.19 Y68.681 E7.61218
G1 X114.96 Y68.596 E7.62202
G1 X115.736 Y68.527 E7.63191
G1 X116.494 Y68.474 E7.64156
G1 X117.277 Y68.439 E7.65151
G1 X118.047 Y68.421 E7.66129
G1 X118.804 Y68.418 E7.6709
G1 X119.569 Y68.432 E7.68062
G1 X120.352 Y68.465 E7.69057
G1 X121.112 Y68.513 E7.70024
G1 X121.889 Y68.579 E7.71014
G1 X122.65 Y68.662 E7.71986
G1 X123.424 Y68.762 E7.72977
G1 X124.177 Y68.876 E7.73944
G1 X124.925 Y69.007 E7.74908
G1 X125.693 Y69.159 E7.75902
G1 X126.444 Y69.323 E7.76878
G1 X127.192 Y69.507 E7.77856
G1 X127.932 Y69.703 E7.78828
G1 X128.678 Y69.92 E7.79815
G1 X129.401 Y70.147 E7.80777
G1 X130.141 Y70.397 E7.81769
G1 X130.856 Y70.657 E7.82735
G1 X131.586 Y70.94 E7.83729
G1 X132.289 Y71.231 E7.84695
G1 X132.997 Y71.541 E7.85676
G1 X133.69 Y71.865 E7.86647
G1 X134.39 Y72.21 E7.87638
G1 X135.066 Y72.56 E7.88605
G1 X135.739 Y72.93 E7.8958
G1 X136.411 Y73.317 E7.90565
G1 X137.07 Y73.717 E7.91543
G1 X137.719 Y74.13 E7.9252
G1 X138.358 Y74.557 E7.93496
G1 X138.984 Y74.994 E7.94465
G1 X139.606 Y75.451 E7.95445
G1 X140.221 Y75.923 E7.9643
G1 X140.819 Y76.402 E7.97403
G1 X141.416 Y76.903 E7.98392
G1 X141.987 Y77.405 E7.99357
G1 X142.555 Y77.926 E8.00336
G1 X143.116 Y78.464 E8.01323
G1 X143.659 Y79.006 E8.02297
G1 X144.198 Y79.569 E8.03287
G1 X144.707 Y80.127 E8.04246
G1 X145.216 Y80.708 E8.05227
G1 X145.711 Y81.297 E8.06203
G1 X146.196 Y81.903 E8.07189
G1 X146.661 Y82.513 E8.08163
G1 X147.119 Y83.135 E8.09144
G1 X147.557 Y83.762 E8.10115
G1 X147.989 Y84.41 E8.11104
G1 X148.397 Y85.054 E8.12072
G1 X148.795 Y85.712 E8.13048
G1 X149.184 Y86.385 E8.14035
G1 X149.554 Y87.065 E8.15018
G1 X149.905 Y87.739 E8.15983
G1 X150.244 Y88.432 E8.16962
G1 X150.57 Y89.132 E8.17943
G1 X150.883 Y89.848 E8.18935
G1 X151.173 Y90.551 E8.19901
G1 X151.449 Y91.264 E8.20871
G1 X151.712 Y91.991 E8.21853
G1 X151.959 Y92.719 E8.22829
G1 X152.188 Y93.456 E8.23809
G1 X152.402 Y94.194 E8.24785
G1 X152.599 Y94.939 E8.25763
G1 X152.783 Y95.695 E8.26751
G1 X152.946 Y96.44 E8.27719
G1 X153.094 Y97.201 E8.28704
G1 X153.226 Y97.955 E8.29676
G1 X153.341 Y98.715 E8.30652
G1 X153.441 Y99.488 E8.31641
G1 X153.522 Y100.246 E8.32609
G1 X153.588 Y101.026 E8.33603
G1 X153.634 Y101.782 E8.34565
G1 X153.666 Y102.552 E8.35543
G1 X153.681 Y103.324 E8.36524
G1 X153.68 Y104.091 E8.37498
G1 X153.66 Y104.862 E8.38477
G1 X153.623 Y105.645 E8.39472
G1 X153.57 Y106.403 E8.40437
G1 X153.502 Y107.167 E8.41411
G1 X153.416 Y107.935 E8.42392
G1 X153.313 Y108.695 E8.43366
G1 X153.193 Y109.456 E8.44344
G1 X153.056 Y110.213 E8.45321
G1 X152.901 Y110.976 E8.46309
G1 X152.734 Y111.719 E8.47276
G1 X152.547 Y112.468 E8.48256
G1 X152.344 Y113.211 E8.49234
G1 X152.125 Y113.95 E8.50213
G1 X151.888 Y114.693 E8.51203
G1 X151.64 Y115.412 E8.52169
G1 X151.372 Y116.14 E8.53154
G1 X151.092 Y116.85 E8.54123
G1 X150.794 Y117.561 E8.55102
G1 X150.481 Y118.264 E8.56079
G1 X150.152 Y118.962 E8.57059
G1 X149.807 Y119.65 E8.58036
G1 X149.446 Y120.337 E8.59021
G1 X149.075 Y121.006 E8.59993
G1 X148.687 Y121.67 E8.60969
G1 X148.285 Y122.326 E8.61946
G1 X147.867 Y122.974 E8.62925
G1 X147.436 Y123.612 E8.63903
G1 X146.987 Y124.245 E8.64888
G1 X146.529 Y124.863 E8.65865
G1 X146.06 Y125.468 E8.66837
G1 X145.572 Y126.07 E8.67821
G1 X145.072 Y126.659 E8.68802
G1 X144.561 Y127.235 E8.69779
G1 X144.04 Y127.795 E8.70751
G1 X143.496 Y128.357 E8.71744
G1 X142.956 Y128.892 E8.72709
G1 X142.394 Y129.423 E8.73691
G1 X141.827 Y129.936 E8.74662
G1 X141.24 Y130.445 E8.75648
G1 X140.649 Y130.935 E8.76623
G1 X140.042 Y131.415 E8.77605
G1 X139.435 Y131.875 E8.78572
G1 X138.804 Y132.33 E8.7956
G1 X138.173 Y132.767 E8.80535
G1 X137.529 Y133.192 E8.81514
G1 X136.88 Y133.598 E8.82486
G1 X136.217 Y133.995 E8.83468
G1 X135.545 Y134.376 E8.84448
G1 X134.872 Y134.74 E8.8542
G1 X134.182 Y135.093 E8.86404
G1 X133.488 Y135.429 E8.87383
G1 X132.782 Y135.751 E8.88368
G1 X132.084 Y136.053 E8.89334
G1 X131.372 Y136.341 E8.90309
G1 X130.646 Y136.617 E8.91295
G1 X129.923 Y136.874 E8.9227
G1 X129.195 Y137.115 E8.93243
G1 X128.448 Y137.345 E8.94236
G1 X127.712 Y137.554 E8.95207
G1 X126.966 Y137.748 E8.96186
G1 X126.219 Y137.924 E8.9716
G1 X125.464 Y138.085 E8.98141
G1 X124.707 Y138.229 E8.99119
G1 X123.941 Y138.356 E9.00105
G1 X123.191 Y138.466 E9.01067
G1 X122.409 Y138.562 E9.02068
G1 X121.658 Y138.639 E9.03026
G1 X120.887 Y138.699 E9.04008
G1 X120.115 Y138.743 E9.0499
G1 X119.338 Y138.77 E9.05977
G1 X118.573 Y138.78 E9.06949
G1 X117.815 Y138.776 E9.07911
G1 X117.045 Y138.752 E9.08889
G1 X116.263 Y138.711 E9.09883
G1 X115.497 Y138.655 E9.10859
G1 X114.735 Y138.581 E9.11831
G1 X113.96 Y138.487 E9.12822
G1 X113.213 Y138.384 E9.13779
G1 X112.443 Y138.258 E9.1477
G1 X111.691 Y138.117 E9.15742
G1 X110.932 Y137.959 E9.16726
G1 X110.185 Y137.785 E9.177
G1 X109.427 Y137.592 E9.18693
G1 X108.686 Y137.386 E9.19669
G1 X107.95 Y137.163 E9.20646
G1 X107.228 Y136.928 E9.2161
G1 X106.501 Y136.673 E9.22588
G1 X105.776 Y136.4 E9.23572
G1 X105.065 Y136.116 E9.24544
G1 X104.356 Y135.812 E9.25523
G1 X103.65 Y135.494 E9.26507
G1 X102.956 Y135.161 E9.27484
G1 X102.269 Y134.815 E9.28461
G1 X101.588 Y134.45 E9.29442
G1 X100.925 Y134.077 E9.30408
G1 X100.25 Y133.678 E9.31403
G1 X99.604 Y133.277 E9.32369
G1 X98.955 Y132.853 E9.33353
G1 X98.313 Y132.415 E9.3434
G1 X97.7 Y131.975 E9.35298
G1 X97.079 Y131.508 E9.36284
G1 X96.466 Y131.027 E9.37274
G1 X95.873 Y130.541 E9.38247
G1 X95.293 Y130.042 E9.39219
