;START_OF_HEADER
;HEADER_VERSION:0.1
;FLAVOR:Griffin
;GENERATOR.NAME:Cura_SteamEngine
;GENERATOR.VERSION:2.3.1
;GENERATOR.BUILD_DATE:2016-11-04
;TARGET_MACHINE.NAME:Ultimaker 3 Extended
;EXTRUDER_TRAIN.0.INITIAL_TEMPERATURE:210
;EXTRUDER_TRAIN.0.MATERIAL.VOLUME_USED:269
;EXTRUDER_TRAIN.0.MATERIAL.GUID:506c9f0d-e3aa-4bd4-b2d2-23e2425b1aa9
;EXTRUDER_TRAIN.0.NOZZLE.DIAMETER:0.4
;EXTRUDER_TRAIN.1.INITIAL_TEMPERATURE:100
;EXTRUDER_TRAIN.1.MATERIAL.VOLUME_USED:84
;EXTRUDER_TRAIN.1.MATERIAL.GUID:86a89ceb-4159-47f6-ab97-e9953803d70f
;EXTRUDER_TRAIN.1.NOZZLE.DIAMETER:0.4
;BUILD_PLATE.INITIAL_TEMPERATURE:60
;PRINT.TIME:1361
;PRINT.SIZE.MIN.X:0
;PRINT.SIZE.MIN.Y:0
;PRINT.SIZE.MIN.Z:0
;PRINT.SIZE.MAX.X:215
;PRINT.SIZE.MAX.Y:215
;PRINT.SIZE.MAX.Z:300
;END_OF_HEADER
;Generated with Cura_SteamEngine 2.3.1

T0
G92 E0

M109 S210
G0 F6000 X181 Y2.1 Z2
G280
G1 F1500 E-6.5
;LAYER_COUNT:230
;LAYER:0
M107
M104 T1 S35.4
M104 T1 S215
M204 S125
M205 X6
G1 Z4
G0 F2400 X112.979 Y90.067 Z2.27
G0 X112.584 Y90.494 Z2.27
M205 X5
;TYPE:SKIRT
G1 Z.27
G1 F1500 E0
G1 F1200 X112.979 Y90.067 E0.00862
G1 X113.428 Y89.699 E0.01722
G1 X113.923 Y89.395 E0.02582
G1 X114.456 Y89.163 E0.03443
G1 X115.015 Y89.006 E0.04303
G1 X115.591 Y88.927 E0.05165
G1 X115.983 Y88.918 E0.05745
G1 X121.242 Y89.051 E0.13538
G1 X121.82 Y89.106 E0.14398
G1 X122.386 Y89.239 E0.1526
G1 X122.928 Y89.449 E0.16121
G1 X123.436 Y89.731 E0.16981
G1 X123.9 Y90.08 E0.17841
G1 X124.365 Y90.551 E0.18822
G1 X125.253 Y91.604 E0.20862
G1 X125.596 Y92.073 E0.21723
G1 X125.872 Y92.585 E0.22585
G1 X126.074 Y93.129 E0.23444
G1 X126.201 Y93.696 E0.24305
G1 X126.235 Y94 E0.24758
G1 X126.757 Y100.713 E0.34732
G1 X126.756 Y101.385 E0.35728
G1 X126.232 Y107.793 E0.45252
G1 X126.145 Y108.368 E0.46113
G1 X125.98 Y108.925 E0.46974
G1 X125.74 Y109.454 E0.47834
G1 X125.331 Y110.074 E0.48935
G1 X124.438 Y111.2 E0.51063
G1 X124.047 Y111.63 E0.51924
G1 X123.6 Y112.001 E0.52785
G1 X123.107 Y112.308 E0.53645
G1 X122.576 Y112.544 E0.54506
G1 X122.018 Y112.705 E0.55366
G1 X121.442 Y112.788 E0.56228
G1 X121.151 Y112.8 E0.5666
G1 X115.944 Y112.828 E0.64373
G1 X115.364 Y112.791 E0.65234
G1 X114.795 Y112.675 E0.66094
G1 X114.247 Y112.482 E0.66955
G1 X113.73 Y112.216 E0.67816
G1 X113.255 Y111.881 E0.68677
G1 X112.662 Y111.291 E0.69916
G1 X111.72 Y110.149 E0.72109
G1 X111.382 Y109.677 E0.72969
G1 X111.112 Y109.162 E0.73831
G1 X110.915 Y108.616 E0.7469
G1 X110.768 Y107.809 E0.75906
G1 X110.245 Y101.48 E0.85313
G1 X110.243 Y100.812 E0.86302
G1 X110.766 Y93.937 E0.96516
G1 X110.85 Y93.362 E0.97377
G1 X111.012 Y92.804 E0.98238
G1 X111.249 Y92.273 E0.99099
G1 X111.687 Y91.609 E1.00277
G1 X112.584 Y90.494 E1.02397
M205 X6
G0 F2400 X112.857 Y90.713
M205 X5
G1 F1200 X113.236 Y90.306 E1.03221
G1 X113.669 Y89.957 E1.04045
G1 X114.148 Y89.674 E1.04869
G1 X114.663 Y89.462 E1.05694
G1 X115.202 Y89.326 E1.06517
G1 X115.974 Y89.268 E1.07664
G1 X121.233 Y89.401 E1.15457
G1 X121.787 Y89.455 E1.16281
G1 X122.327 Y89.588 E1.17105
G1 X122.843 Y89.797 E1.1793
G1 X123.323 Y90.077 E1.18753
G1 X123.759 Y90.424 E1.19579
G1 X124.097 Y90.777 E1.20303
G1 X124.985 Y91.83 E1.22343
G1 X125.313 Y92.28 E1.23168
G1 X125.572 Y92.772 E1.23992
G1 X125.758 Y93.296 E1.24815
G1 X125.886 Y94.028 E1.25916
G1 X126.408 Y100.741 E1.3589
G1 X126.407 Y101.357 E1.36803
G1 X125.883 Y107.765 E1.46327
G1 X125.798 Y108.315 E1.47151
G1 X125.635 Y108.847 E1.47975
G1 X125.398 Y109.35 E1.48799
G1 X125.057 Y109.857 E1.49704
G1 X124.164 Y110.983 E1.51833
G1 X123.788 Y111.393 E1.52657
G1 X123.357 Y111.745 E1.53481
G1 X122.88 Y112.031 E1.54305
G1 X122.367 Y112.247 E1.5513
G1 X121.828 Y112.386 E1.55954
G1 X121.149 Y112.45 E1.56965
G1 X115.942 Y112.478 E1.64678
G1 X115.387 Y112.441 E1.65502
G1 X114.842 Y112.325 E1.66327
G1 X114.321 Y112.132 E1.6715
G1 X113.832 Y111.866 E1.67975
G1 X113.386 Y111.534 E1.68799
G1 X112.932 Y111.069 E1.69761
G1 X111.99 Y109.927 E1.71954
G1 X111.667 Y109.473 E1.7278
G1 X111.413 Y108.978 E1.73604
G1 X111.233 Y108.452 E1.74427
G1 X111.117 Y107.78 E1.75438
G1 X110.594 Y101.451 E1.84845
G1 X110.592 Y100.838 E1.85753
G1 X111.115 Y93.963 E1.95966
G1 X111.197 Y93.413 E1.9679
G1 X111.357 Y92.88 E1.97615
G1 X111.592 Y92.375 E1.9844
G1 X111.96 Y91.828 E1.99416
G1 X112.857 Y90.713 E2.01536
M205 X6
G0 F2400 X113.129 Y90.932
M205 X5
G1 F1200 X113.492 Y90.545 E2.02322
G1 X113.909 Y90.217 E2.03108
G1 X114.371 Y89.955 E2.03895
G1 X114.866 Y89.765 E2.0468
G1 X115.384 Y89.651 E2.05466
G1 X115.965 Y89.618 E2.06328
G1 X121.224 Y89.751 E2.14121
G1 X121.752 Y89.804 E2.14907
G1 X122.266 Y89.936 E2.15693
G1 X122.754 Y90.144 E2.16479
G1 X123.206 Y90.423 E2.17266
G1 X123.611 Y90.766 E2.18052
G1 X123.83 Y91.003 E2.1853
G1 X124.718 Y92.056 E2.2057
G1 X125.028 Y92.486 E2.21355
G1 X125.271 Y92.958 E2.22142
G1 X125.44 Y93.461 E2.22928
G1 X125.537 Y94.055 E2.23819
G1 X126.059 Y100.768 E2.33794
G1 X126.058 Y101.328 E2.34623
G1 X125.534 Y107.736 E2.44147
G1 X125.451 Y108.26 E2.44933
G1 X125.291 Y108.766 E2.45719
G1 X125.056 Y109.242 E2.46506
G1 X124.783 Y109.639 E2.47219
G1 X123.89 Y110.765 E2.49348
G1 X123.53 Y111.155 E2.50134
G1 X123.115 Y111.486 E2.50921
G1 X122.656 Y111.752 E2.51707
G1 X122.161 Y111.945 E2.52494
G1 X121.644 Y112.062 E2.53279
G1 X121.147 Y112.1 E2.54017
G1 X115.94 Y112.128 E2.61731
G1 X115.411 Y112.091 E2.62516
G1 X114.893 Y111.975 E2.63303
G1 X114.398 Y111.782 E2.6409
G1 X113.938 Y111.518 E2.64875
G1 X113.523 Y111.187 E2.65662
G1 X113.202 Y110.846 E2.66355
G1 X112.26 Y109.704 E2.68548
G1 X111.954 Y109.27 E2.69335
G1 X111.716 Y108.796 E2.70121
G1 X111.553 Y108.291 E2.70907
G1 X111.466 Y107.751 E2.71717
G1 X110.943 Y101.422 E2.81124
G1 X110.941 Y100.865 E2.81949
G1 X111.464 Y93.99 E2.92163
G1 X111.544 Y93.465 E2.9295
G1 X111.702 Y92.958 E2.93736
G1 X111.934 Y92.481 E2.94522
G1 X112.232 Y92.047 E2.95302
G1 X113.129 Y90.932 E2.97422
M205 X6
G0 F2400 X113.402 Y91.152
M205 X5
G1 F1200 X113.748 Y90.786 E2.98168
G1 X114.147 Y90.479 E2.98913
G1 X114.59 Y90.239 E2.9966
G1 X115.065 Y90.072 E3.00406
G1 X115.561 Y89.983 E3.01152
G1 X115.956 Y89.968 E3.01738
G1 X121.215 Y90.101 E3.0953
G1 X121.716 Y90.154 E3.10277
G1 X122.202 Y90.285 E3.11022
G1 X122.662 Y90.491 E3.11769
G1 X123.083 Y90.768 E3.12516
G1 X123.562 Y91.228 E3.13499
G1 X124.45 Y92.281 E3.1554
G1 X124.743 Y92.691 E3.16286
G1 X124.968 Y93.141 E3.17032
G1 X125.118 Y93.622 E3.17778
G1 X125.188 Y94.082 E3.18467
G1 X125.71 Y100.795 E3.28441
G1 X125.709 Y101.3 E3.29189
G1 X125.185 Y107.708 E3.38713
G1 X125.105 Y108.205 E3.39459
G1 X124.946 Y108.683 E3.40205
G1 X124.715 Y109.13 E3.40951
G1 X124.509 Y109.422 E3.4148
G1 X123.616 Y110.548 E3.43609
G1 X123.272 Y110.916 E3.44355
G1 X122.875 Y111.226 E3.45101
G1 X122.434 Y111.469 E3.45847
G1 X121.96 Y111.639 E3.46593
G1 X121.465 Y111.732 E3.47339
G1 X121.145 Y111.75 E3.47814
G1 X115.938 Y111.778 E3.55527
G1 X115.436 Y111.741 E3.56273
G1 X114.946 Y111.625 E3.57019
G1 X114.48 Y111.432 E3.57766
G1 X114.051 Y111.169 E3.58512
G1 X113.669 Y110.841 E3.59257
G1 X113.472 Y110.623 E3.59693
G1 X112.53 Y109.481 E3.61886
G1 X112.241 Y109.069 E3.62631
G1 X112.021 Y108.616 E3.63377
G1 X111.876 Y108.133 E3.64124
G1 X111.815 Y107.722 E3.6474
G1 X111.292 Y101.393 E3.74147
G1 X111.29 Y100.891 E3.7489
G1 X111.813 Y94.016 E3.85104
G1 X111.891 Y93.519 E3.85849
G1 X112.047 Y93.04 E3.86596
G1 X112.276 Y92.591 E3.87342
G1 X112.505 Y92.267 E3.8793
G1 X113.402 Y91.152 E3.9005
M205 X6
G1 F1500 E-2.5995
G0 F2400 X115.17 Y94.6
G0 X116.885 Y97.741
G0 X116.979 Y97.986
M205 X5
;TYPE:WALL-INNER
G1 F1500 E3.9005
G1 F1200 X117.007 Y97.971 E3.9009
G1 X117.178 Y97.889 E3.90331
G1 X117.269 Y97.853 E3.90455
G0 X117.269 Y97.889
G0 X117.269 Y97.971
G1 X117.269 Y98.003 E3.90494
G1 X117.269 Y99.641 E3.92573
G1 X116.456 Y99.641 E3.93606
G1 X116.456 Y102.104 E3.96733
G1 X117.269 Y102.104 E3.97765
G1 X117.269 Y103.679 E3.99765
G1 X117.269 Y103.864 E4
G1 X117.269 Y103.893 E4.00037
G0 X117.196 Y103.864
G1 X117.032 Y103.781 E4.00194
G1 X116.86 Y103.693 E4.0044
G1 X116.675 Y103.576 E4.00718
G1 X116.507 Y103.456 E4.0098
G1 X116.365 Y103.34 E4.01213
G1 X116.216 Y103.203 E4.0147
G1 X116.076 Y103.057 E4.01726
G1 X115.95 Y102.91 E4.01972
G1 X115.837 Y102.757 E4.02214
G1 X115.709 Y102.563 E4.02509
G1 X115.624 Y102.414 E4.02727
G1 X115.541 Y102.246 E4.02965
G1 X115.457 Y102.046 E4.0324
G1 X115.387 Y101.849 E4.03505
G1 X115.334 Y101.659 E4.03756
G1 X115.294 Y101.474 E4.03996
G1 X115.263 Y101.275 E4.04252
G1 X115.244 Y101.067 E4.04517
G1 X115.237 Y100.865 E4.04774
G1 X115.242 Y100.686 E4.05001
G1 X115.259 Y100.487 E4.05255
G1 X115.29 Y100.279 E4.05522
G1 X115.329 Y100.099 E4.05756
G1 X115.383 Y99.906 E4.0601
G1 X115.448 Y99.717 E4.06264
G1 X115.529 Y99.522 E4.06532
G1 X115.606 Y99.363 E4.06756
G1 X115.704 Y99.19 E4.07009
G1 X115.824 Y99.004 E4.0729
G1 X115.936 Y98.854 E4.07527
G1 X116.063 Y98.703 E4.07778
G1 X116.213 Y98.545 E4.08055
G1 X116.356 Y98.413 E4.08302
G1 X116.506 Y98.289 E4.08549
G1 X116.654 Y98.182 E4.08781
G1 X116.843 Y98.061 E4.09066
G1 X116.979 Y97.986 E4.09263
M205 X6
G0 F2400 X116.686 Y99.871
G0 X116.756 Y99.941
M205 X5
G1 F1200 X116.756 Y101.804 E4.11628
G1 X117.569 Y101.804 E4.12661
G1 X117.569 Y104.212 E4.15718
G1 X117.569 Y104.22 E4.15728
G1 X117.569 Y104.311 E4.15844
G1 X117.281 Y104.22 E4.16044
G1 X117.274 Y104.218 E4.16053
G1 X117.075 Y104.139 E4.16325
G1 X116.709 Y103.953 E4.16847
G1 X116.501 Y103.821 E4.17159
G1 X116.332 Y103.7 E4.17423
G1 X116.166 Y103.564 E4.17696
G1 X116.008 Y103.419 E4.17968
G1 X115.854 Y103.258 E4.18251
G1 X115.713 Y103.094 E4.18526
G1 X115.589 Y102.927 E4.1879
G1 X115.458 Y102.728 E4.19092
G1 X115.359 Y102.555 E4.19345
G1 X115.264 Y102.362 E4.19618
G1 X115.176 Y102.152 E4.19908
G1 X115.104 Y101.95 E4.2018
G1 X115.045 Y101.74 E4.20457
G1 X114.997 Y101.523 E4.20739
G1 X114.966 Y101.321 E4.20998
G1 X114.945 Y101.095 E4.21287
G1 X114.937 Y100.876 E4.21565
G1 X114.942 Y100.669 E4.21828
G1 X114.96 Y100.461 E4.22093
G1 X114.994 Y100.228 E4.22392
G1 X115.036 Y100.035 E4.22643
G1 X115.096 Y99.817 E4.2293
G1 X115.171 Y99.602 E4.23219
G1 X115.259 Y99.391 E4.23509
G1 X115.34 Y99.224 E4.23745
G1 X115.448 Y99.033 E4.24023
G1 X115.578 Y98.832 E4.24327
G1 X115.701 Y98.667 E4.24589
G1 X115.833 Y98.51 E4.24849
G1 X116.004 Y98.33 E4.25164
G1 X116.152 Y98.193 E4.2542
G1 X116.326 Y98.049 E4.25707
G1 X116.492 Y97.929 E4.25967
G1 X116.681 Y97.808 E4.26252
G1 X116.867 Y97.706 E4.26522
G1 X117.067 Y97.61 E4.26803
G1 X117.261 Y97.533 E4.27068
G1 X117.34 Y97.506 E4.27174
G1 X117.476 Y97.46 E4.27357
G1 X117.569 Y97.435 E4.27479
G0 X117.569 Y97.46
G1 X117.569 Y97.604 E4.27611
G1 X117.569 Y99.941 E4.30578
G1 X116.756 Y99.941 E4.3161
M205 X6
G0 F2400 X117.081 Y100.266
M205 X5
;TYPE:WALL-OUTER
G1 F1200 X117.081 Y101.479 E4.33407
G1 X117.894 Y101.479 E4.34611
G1 X117.894 Y104.609 E4.39248
G1 X117.894 Y104.661 E4.39325
G1 X117.894 Y104.713 E4.39402
G1 X117.625 Y104.661 E4.39557
G1 X117.575 Y104.648 E4.39627
G1 X117.404 Y104.603 E4.39889
G1 X117.179 Y104.529 E4.4024
G1 X116.949 Y104.438 E4.40606
G1 X116.741 Y104.339 E4.40947
G1 X116.537 Y104.229 E4.41291
G1 X116.327 Y104.096 E4.41659
G1 X116.134 Y103.958 E4.4201
G1 X115.951 Y103.808 E4.42361
G1 X115.775 Y103.646 E4.42715
G1 X115.619 Y103.483 E4.43049
G1 X115.458 Y103.295 E4.43416
G1 X115.322 Y103.113 E4.43753
G1 X115.186 Y102.906 E4.4412
G1 X115.073 Y102.708 E4.44457
G1 X114.964 Y102.488 E4.44821
G1 X114.876 Y102.278 E4.45158
G1 X114.793 Y102.044 E4.45526
G1 X114.732 Y101.828 E4.45858
G1 X114.678 Y101.585 E4.46227
G1 X114.642 Y101.351 E4.46578
G1 X114.621 Y101.125 E4.46914
G1 X114.612 Y100.888 E4.47265
G1 X114.618 Y100.64 E4.47633
G1 X114.638 Y100.414 E4.47969
G1 X114.672 Y100.181 E4.48318
G1 X114.723 Y99.948 E4.48671
G1 X114.789 Y99.71 E4.49037
G1 X114.864 Y99.495 E4.49374
G1 X114.959 Y99.266 E4.49742
G1 X115.057 Y99.064 E4.50074
G1 X115.175 Y98.856 E4.50428
G1 X115.31 Y98.648 E4.50796
G1 X115.445 Y98.467 E4.5113
G1 X115.597 Y98.286 E4.5148
G1 X115.768 Y98.106 E4.51848
G1 X115.935 Y97.951 E4.52186
G1 X116.126 Y97.793 E4.52553
G1 X116.317 Y97.655 E4.52902
G1 X116.512 Y97.53 E4.53245
G1 X116.716 Y97.418 E4.5359
G1 X116.94 Y97.311 E4.53957
G1 X117.151 Y97.227 E4.54294
G1 X117.381 Y97.149 E4.54654
G1 X117.567 Y97.099 E4.54939
G1 X117.604 Y97.089 E4.54996
G1 X117.894 Y97.033 E4.55433
G0 X117.894 Y97.089
G1 X117.894 Y97.128 E4.55487
G1 X117.894 Y100.266 E4.60136
G1 X117.081 Y100.266 E4.6134
M205 X6
G0 F2400 X117.081 Y99.841
G0 X116.9 Y99.525
M205 X5
;TYPE:SKIN
G1 F1200 X116.151 Y98.776 E4.62909
M205 X6
G0 F2400 X116.399 Y98.53
M205 X5
G1 F1200 X117.152 Y99.283 E4.64486
M205 X6
G0 F2400 X116.913 Y98.548
G1 F1200 X117.065 Y98.205 E4.65169
G0 F2400 X117.152 Y98.293
G0 X115.931 Y99.051
M205 X5
G1 F1200 X116.405 Y99.525 E4.66162
M205 X6
G0 F2400 X116.34 Y99.955
M205 X5
G1 F1200 X115.741 Y99.356 E4.67417
M205 X6
G0 F2400 X115.582 Y99.692
M205 X5
G1 F1200 X116.34 Y100.45 E4.69005
M205 X6
G0 F2400 X116.34 Y100.945
M205 X5
G1 F1200 X115.457 Y100.062 E4.70855
M205 X6
G0 F2400 X115.376 Y100.476
M205 X5
G1 F1200 X116.34 Y101.44 E4.72874
M205 X6
G0 F2400 X116.34 Y101.935
M205 X5
G1 F1200 X115.354 Y100.949 E4.7494
M205 X6
G0 F2400 X115.419 Y101.509
M205 X5
G1 F1200 X117.154 Y103.244 E4.78575
M205 X6
G0 F2400 X117.098 Y103.683
M205 X5
G1 F1200 X115.676 Y102.261 E4.81554
M205 X6
G0 F2400 X116.624 Y102.219
M205 X5
G1 F1200 X117.153 Y102.748 E4.82662
M205 X6
G1 F1500 E-1.67338
G0 F2400 X117.529 Y102.104
G0 X119.471 Y102.104
G0 X120.595 Y102.104
M205 X5
;TYPE:WALL-INNER
G1 F1500 E4.82662
G1 F1200 X120.595 Y99.641 E4.85789
G1 X119.731 Y99.641 E4.86886
G1 X119.731 Y98.069 E4.88882
G1 X119.731 Y97.874 E4.8913
G1 X119.731 Y97.851 E4.89159
G0 X119.79 Y97.874
G1 X119.964 Y97.962 E4.89321
G1 X120.16 Y98.061 E4.896
G1 X120.296 Y98.147 E4.89805
G1 X120.473 Y98.273 E4.9008
G1 X120.63 Y98.399 E4.90336
G1 X120.782 Y98.542 E4.90601
G1 X120.923 Y98.689 E4.9086
G1 X121.052 Y98.84 E4.91112
G1 X121.15 Y98.97 E4.91319
G1 X121.276 Y99.16 E4.91608
G1 X121.366 Y99.316 E4.91837
G1 X121.471 Y99.527 E4.92136
G1 X121.603 Y99.866 E4.92598
G1 X121.659 Y100.057 E4.92851
G1 X121.702 Y100.246 E4.93097
G1 X121.738 Y100.48 E4.93397
G1 X121.754 Y100.649 E4.93613
G1 X121.762 Y100.887 E4.93915
G1 X121.755 Y101.093 E4.94177
G1 X121.737 Y101.281 E4.94417
G1 X121.708 Y101.473 E4.94663
G1 X121.665 Y101.671 E4.9492
G1 X121.608 Y101.866 E4.95178
G1 X121.541 Y102.052 E4.95429
G1 X121.472 Y102.217 E4.95657
G1 X121.368 Y102.426 E4.95953
G1 X121.283 Y102.575 E4.96171
G1 X121.157 Y102.765 E4.9646
G1 X121.047 Y102.911 E4.96692
G1 X120.916 Y103.065 E4.96949
G1 X120.783 Y103.201 E4.97191
G1 X120.63 Y103.344 E4.97456
G1 X120.467 Y103.475 E4.97722
G1 X120.322 Y103.579 E4.97949
G1 X120.154 Y103.686 E4.98201
G1 X120.012 Y103.762 E4.98406
G1 X119.96 Y103.789 E4.9848
G1 X119.731 Y103.892 E4.98799
G0 X119.731 Y103.789
G1 X119.731 Y103.73 E4.98867
G1 X119.731 Y102.104 E5.00931
G1 X120.595 Y102.104 E5.02028
M205 X6
G0 F2400 X120.295 Y101.804
M205 X5
G1 F1200 X120.295 Y99.941 E5.04394
G1 X119.431 Y99.941 E5.05491
G1 X119.431 Y97.537 E5.08543
G1 X119.431 Y97.521 E5.08563
G1 X119.431 Y97.433 E5.08675
G1 X119.709 Y97.521 E5.08858
G1 X119.723 Y97.526 E5.08876
G1 X119.911 Y97.6 E5.09133
G1 X120.1 Y97.689 E5.09398
G1 X120.301 Y97.796 E5.09687
G1 X120.47 Y97.903 E5.09941
G1 X120.661 Y98.039 E5.10239
G1 X120.825 Y98.171 E5.10506
G1 X120.987 Y98.323 E5.10788
G1 X121.147 Y98.489 E5.11081
G1 X121.28 Y98.645 E5.11341
G1 X121.4 Y98.804 E5.11594
G1 X121.532 Y99.003 E5.11897
G1 X121.635 Y99.182 E5.1216
G1 X121.74 Y99.393 E5.12459
G1 X121.817 Y99.576 E5.12711
G1 X121.891 Y99.782 E5.12989
G1 X121.952 Y99.991 E5.13265
G1 X121.999 Y100.2 E5.13537
G1 X122.035 Y100.434 E5.13838
G1 X122.053 Y100.62 E5.14075
G1 X122.062 Y100.887 E5.14414
G1 X122.054 Y101.122 E5.14713
G1 X122.036 Y101.31 E5.14953
G1 X122.001 Y101.537 E5.15244
G1 X121.956 Y101.742 E5.15511
G1 X121.894 Y101.956 E5.15794
G1 X121.818 Y102.168 E5.1608
G1 X121.741 Y102.351 E5.16332
G1 X121.637 Y102.56 E5.16628
G1 X121.533 Y102.741 E5.16893
G1 X121.403 Y102.937 E5.17192
G1 X121.281 Y103.099 E5.17449
G1 X121.139 Y103.265 E5.17727
G1 X120.988 Y103.42 E5.18001
G1 X120.826 Y103.571 E5.18283
