;START_OF_HEADER
;HEADER_VERSION:0.1
;FLAVOR:Griffin
;GENERATOR.NAME:Cura_SteamEngine
;GENERATOR.VERSION:2.3.1
;GENERATOR.BUILD_DATE:2016-11-04
;TARGET_MACHINE.NAME:Ultimaker 3 Extended
;EXTRUDER_TRAIN.0.INITIAL_TEMPERATURE:210
;EXTRUDER_TRAIN.0.MATERIAL.VOLUME_USED:835
;EXTRUDER_TRAIN.0.MATERIAL.GUID:506c9f0d-e3aa-4bd4-b2d2-23e2425b1aa9
;EXTRUDER_TRAIN.0.NOZZLE.DIAMETER:0.4
;EXTRUDER_TRAIN.1.INITIAL_TEMPERATURE:100
;EXTRUDER_TRAIN.1.MATERIAL.VOLUME_USED:37
;EXTRUDER_TRAIN.1.MATERIAL.GUID:86a89ceb-4159-47f6-ab97-e9953803d70f
;EXTRUDER_TRAIN.1.NOZZLE.DIAMETER:0.4
;BUILD_PLATE.INITIAL_TEMPERATURE:60
;PRINT.TIME:3608
;PRINT.SIZE.MIN.X:0
;PRINT.SIZE.MIN.Y:0
;PRINT.SIZE.MIN.Z:0
;PRINT.SIZE.MAX.X:215
;PRINT.SIZE.MAX.Y:215
;PRINT.SIZE.MAX.Z:300
;END_OF_HEADER
;Generated with Cura_SteamEngine 2.3.1

T0
G92 E0

M109 S210
G0 F6000 X181 Y2.1 Z2
G280
G1 F1500 E-6.5
;LAYER_COUNT:230
;LAYER:0
M107
M104 T1 S106.6
M104 T1 S215
M204 S125
M205 X6
G1 Z4
G0 F2400 X112.125 Y83.134 Z2.27
M205 X5
;TYPE:SKIRT
G1 Z.27
G1 F1500 E0
G1 F1200 X112.53 Y82.753 E0.00824
G1 X112.986 Y82.434 E0.01648
G1 X113.483 Y82.183 E0.02473
G1 X114.01 Y82.007 E0.03296
G1 X114.558 Y81.907 E0.04121
G1 X114.964 Y81.885 E0.04723
G1 X122.011 Y81.866 E0.15162
G1 X122.566 Y81.904 E0.15986
G1 X123.109 Y82.022 E0.1681
G1 X123.631 Y82.216 E0.17634
G1 X124.119 Y82.483 E0.18458
G1 X124.564 Y82.817 E0.19283
G1 X124.957 Y83.212 E0.20108
G1 X125.289 Y83.658 E0.20932
G1 X125.553 Y84.148 E0.21756
G1 X125.745 Y84.67 E0.2258
G1 X125.84 Y85.084 E0.23209
G1 X126.779 Y90.541 E0.31412
G1 X128.001 Y95.836 E0.39462
G1 X129.519 Y101.301 E0.47864
G1 X129.649 Y102.052 E0.48993
G1 X129.755 Y103.484 E0.5112
G1 X129.758 Y104.02 E0.51914
G1 X129.518 Y107.724 E0.57412
G1 X129.418 Y113.145 E0.65444
G1 X129.76 Y120.435 E0.76254
G1 X129.761 Y120.77 E0.76751
G1 X129.713 Y121.975 E0.78537
G1 X129.661 Y122.471 E0.79276
G1 X129.503 Y123.399 E0.8067
G1 X129.396 Y123.859 E0.8137
G1 X129.182 Y124.575 E0.82477
G1 X128.973 Y125.12 E0.83342
G1 X128.35 Y126.439 E0.85502
G1 X127.977 Y127.067 E0.86584
G1 X127.225 Y128.098 E0.88475
G1 X126.845 Y128.544 E0.89343
G1 X126.095 Y129.3 E0.9092
G1 X125.646 Y129.688 E0.91799
G1 X124.762 Y130.341 E0.93427
G1 X124.36 Y130.601 E0.94137
G1 X123.679 Y130.984 E0.95294
G1 X123.248 Y131.193 E0.96003
G1 X122.24 Y131.606 E0.97617
G1 X121.689 Y131.785 E0.98475
G1 X120.68 Y132.031 E1.00014
G1 X120.051 Y132.13 E1.00957
G1 X118.634 Y132.236 E1.03062
G1 X118.033 Y132.234 E1.03952
G1 X117.092 Y132.158 E1.05351
G1 X116.583 Y132.083 E1.06113
G1 X115.656 Y131.882 E1.07518
G1 X115.144 Y131.734 E1.08307
G1 X114.164 Y131.375 E1.09853
G1 X113.556 Y131.09 E1.10848
G1 X112.155 Y130.279 E1.13246
G1 X111.51 Y129.811 E1.14427
G1 X110.528 Y128.931 E1.1638
G1 X110.115 Y128.498 E1.17266
G1 X109.441 Y127.674 E1.18843
G1 X109.105 Y127.194 E1.19711
G1 X108.585 Y126.315 E1.21224
G1 X108.377 Y125.912 E1.21896
G1 X107.984 Y125.025 E1.23333
G1 X107.799 Y124.511 E1.24142
G1 X107.549 Y123.628 E1.25502
G1 X107.43 Y123.033 E1.264
G1 X107.258 Y121.597 E1.28543
G1 X107.237 Y120.901 E1.29574
G1 X107.475 Y116.995 E1.35371
G1 X107.583 Y111.536 E1.43459
G1 X107.38 Y106.035 E1.51614
G1 X107.241 Y103.649 E1.55154
G1 X107.268 Y102.913 E1.56245
G1 X107.483 Y101.293 E1.58666
G1 X107.596 Y100.745 E1.59495
G1 X109.083 Y95.509 E1.67558
G1 X109.72 Y92.876 E1.71571
G1 X110.269 Y90.272 E1.75513
G1 X111.155 Y85.105 E1.83279
G1 X111.288 Y84.565 E1.84102
G1 X111.497 Y84.049 E1.84927
G1 X111.778 Y83.569 E1.85751
G1 X112.125 Y83.134 E1.86575
M205 X6
G0 F2400 X112.45 Y83.3
M205 X5
G1 F1200 X112.847 Y82.949 E1.8736
G1 X113.294 Y82.661 E1.88148
G1 X113.778 Y82.444 E1.88934
G1 X114.289 Y82.302 E1.89719
G1 X114.964 Y82.235 E1.90724
G1 X122.011 Y82.216 E2.01163
G1 X122.541 Y82.255 E2.0195
G1 X123.058 Y82.372 E2.02736
G1 X123.552 Y82.566 E2.03522
G1 X124.011 Y82.832 E2.04308
G1 X124.426 Y83.164 E2.05095
G1 X124.785 Y83.554 E2.0588
G1 X125.082 Y83.993 E2.06665
G1 X125.31 Y84.473 E2.07452
G1 X125.495 Y85.143 E2.08482
G1 X126.436 Y90.611 E2.16701
G1 X127.666 Y95.939 E2.24801
G1 X129.181 Y101.395 E2.33189
G1 X129.3 Y102.078 E2.34216
G1 X129.406 Y103.51 E2.36343
G1 X129.409 Y103.998 E2.37066
G1 X129.168 Y107.717 E2.42587
G1 X129.068 Y113.155 E2.50643
G1 X129.41 Y120.451 E2.61463
G1 X129.411 Y120.756 E2.61915
G1 X129.363 Y121.961 E2.63701
G1 X129.316 Y122.413 E2.64375
G1 X129.158 Y123.341 E2.65769
G1 X129.06 Y123.758 E2.66404
G1 X128.846 Y124.474 E2.67511
G1 X128.656 Y124.97 E2.68297
G1 X128.033 Y126.289 E2.70458
G1 X127.694 Y126.861 E2.71443
G1 X126.942 Y127.892 E2.73333
G1 X126.596 Y128.298 E2.74124
G1 X125.846 Y129.054 E2.75701
G1 X125.438 Y129.406 E2.76499
G1 X124.554 Y130.059 E2.78127
G1 X124.188 Y130.296 E2.78773
G1 X123.507 Y130.679 E2.79931
G1 X123.115 Y130.869 E2.80576
G1 X122.107 Y131.282 E2.8219
G1 X121.606 Y131.445 E2.8297
G1 X120.597 Y131.691 E2.84509
G1 X120.025 Y131.781 E2.85366
G1 X118.608 Y131.887 E2.87471
G1 X118.061 Y131.886 E2.88281
G1 X117.12 Y131.81 E2.8968
G1 X116.657 Y131.741 E2.90373
G1 X115.73 Y131.54 E2.91779
G1 X115.264 Y131.405 E2.92497
G1 X114.284 Y131.046 E2.94043
G1 X113.731 Y130.787 E2.94948
G1 X112.33 Y129.976 E2.97346
G1 X111.744 Y129.55 E2.98419
G1 X110.762 Y128.67 E3.00372
G1 X110.386 Y128.277 E3.01178
G1 X109.712 Y127.453 E3.02755
G1 X109.406 Y127.016 E3.03545
G1 X108.886 Y126.137 E3.05058
G1 X108.697 Y125.77 E3.0567
G1 X108.304 Y124.883 E3.07107
G1 X108.135 Y124.415 E3.07844
G1 X107.885 Y123.532 E3.09203
G1 X107.777 Y122.991 E3.1002
G1 X107.605 Y121.555 E3.12163
G1 X107.587 Y120.922 E3.13101
G1 X107.824 Y117.023 E3.18887
G1 X107.933 Y111.547 E3.27001
G1 X107.728 Y105.983 E3.35248
G1 X107.59 Y103.629 E3.38741
G1 X107.615 Y102.959 E3.39735
G1 X107.83 Y101.339 E3.42155
G1 X107.933 Y100.84 E3.4291
G1 X109.419 Y95.607 E3.50968
G1 X110.059 Y92.961 E3.55001
G1 X110.615 Y90.325 E3.58992
G1 X111.5 Y85.164 E3.66748
G1 X111.628 Y84.65 E3.67533
G1 X111.833 Y84.16 E3.6832
G1 X112.109 Y83.707 E3.69106
G1 X112.45 Y83.3 E3.69892
M205 X6
G0 F2400 X112.773 Y83.472
M205 X5
G1 F1200 X113.163 Y83.152 E3.7064
G1 X113.598 Y82.899 E3.71385
G1 X114.067 Y82.717 E3.7213
G1 X114.56 Y82.612 E3.72877
G1 X114.965 Y82.585 E3.73478
G1 X122.012 Y82.566 E3.83917
G1 X122.515 Y82.605 E3.84665
G1 X123.004 Y82.722 E3.85409
G1 X123.469 Y82.916 E3.86156
G1 X123.898 Y83.18 E3.86902
G1 X124.279 Y83.509 E3.87648
G1 X124.604 Y83.894 E3.88394
G1 X124.863 Y84.326 E3.8914
G1 X125.051 Y84.793 E3.89886
G1 X125.15 Y85.202 E3.90509
G1 X126.092 Y90.676 E3.98737
G1 X127.325 Y96.021 E4.06863
G1 X128.844 Y101.488 E4.15268
G1 X128.951 Y102.104 E4.16194
G1 X129.057 Y103.536 E4.18321
G1 X129.059 Y103.975 E4.18972
G1 X128.819 Y107.688 E4.24483
G1 X128.718 Y113.149 E4.32574
G1 X129.061 Y120.467 E4.43426
G1 X129.061 Y120.742 E4.43834
G1 X129.013 Y121.947 E4.4562
G1 X128.971 Y122.354 E4.46226
G1 X128.813 Y123.282 E4.47621
G1 X128.725 Y123.658 E4.48193
G1 X128.511 Y124.374 E4.493
G1 X128.34 Y124.821 E4.50009
G1 X127.717 Y126.14 E4.5217
G1 X127.411 Y126.655 E4.53057
G1 X126.659 Y127.686 E4.54947
G1 X126.348 Y128.051 E4.55658
G1 X125.598 Y128.807 E4.57235
G1 X125.23 Y129.125 E4.57956
G1 X124.346 Y129.778 E4.59584
G1 X124.016 Y129.991 E4.60166
G1 X123.335 Y130.374 E4.61323
G1 X122.983 Y130.545 E4.61903
G1 X121.975 Y130.958 E4.63516
G1 X121.523 Y131.105 E4.6422
G1 X120.514 Y131.351 E4.65759
G1 X119.999 Y131.432 E4.66531
G1 X118.582 Y131.538 E4.68636
G1 X118.089 Y131.537 E4.69366
G1 X117.148 Y131.461 E4.70765
G1 X116.731 Y131.399 E4.71389
G1 X115.804 Y131.198 E4.72794
G1 X115.385 Y131.076 E4.73441
G1 X114.405 Y130.717 E4.74987
G1 X113.906 Y130.484 E4.75803
G1 X112.505 Y129.673 E4.78201
G1 X111.977 Y129.29 E4.79167
G1 X110.995 Y128.41 E4.8112
G1 X110.656 Y128.055 E4.81847
G1 X109.982 Y127.231 E4.83424
G1 X109.707 Y126.838 E4.84135
G1 X109.187 Y125.959 E4.85648
G1 X109.017 Y125.628 E4.86199
G1 X108.624 Y124.741 E4.87636
G1 X108.472 Y124.32 E4.88299
G1 X108.222 Y123.437 E4.89658
G1 X108.125 Y122.95 E4.90394
G1 X107.953 Y121.514 E4.92536
G1 X107.936 Y120.943 E4.93383
G1 X108.174 Y117.026 E4.99196
G1 X108.283 Y111.541 E5.07322
G1 X108.081 Y106.038 E5.1548
G1 X107.939 Y103.608 E5.19085
G1 X107.962 Y103.005 E5.19979
G1 X108.177 Y101.385 E5.224
G1 X108.27 Y100.936 E5.23079
G1 X109.753 Y95.713 E5.31122
G1 X110.398 Y93.047 E5.35185
G1 X110.962 Y90.373 E5.39234
G1 X111.845 Y85.224 E5.46972
G1 X111.969 Y84.736 E5.47718
G1 X112.169 Y84.273 E5.48465
G1 X112.439 Y83.848 E5.49211
G1 X112.773 Y83.472 E5.49956
M205 X6
G1 F1500 E-1.00044
G0 F2400 X111.478 Y89.782
G0 X111.398 Y91.079
G0 X111.228 Y95.796
G0 X114.271 Y98.709
G0 X116.553 Y97.708
M205 X5
;TYPE:WALL-INNER
G1 F1500 E5.49956
G1 F1200 X117.129 Y97.548 E5.50715
G1 X117.733 Y97.442 E5.51494
G1 X118.341 Y97.397 E5.52268
G1 X118.94 Y97.41 E5.53029
G1 X119.568 Y97.488 E5.53832
G1 X120.142 Y97.617 E5.54579
G1 X120.718 Y97.805 E5.55348
G1 X121.294 Y98.06 E5.56148
G1 X121.808 Y98.35 E5.56898
G1 X122.323 Y98.712 E5.57697
G1 X122.756 Y99.085 E5.58423
G1 X123.198 Y99.547 E5.59234
G1 X123.571 Y100.024 E5.60003
G1 X123.897 Y100.538 E5.60776
G1 X124.171 Y101.084 E5.61552
G1 X124.391 Y101.65 E5.62323
G1 X124.552 Y102.229 E5.63086
G1 X124.658 Y102.833 E5.63864
G1 X124.703 Y103.441 E5.64639
G1 X124.69 Y104.04 E5.65399
G1 X124.612 Y104.668 E5.66203
G1 X124.483 Y105.242 E5.6695
G1 X124.295 Y105.818 E5.67719
G1 X124.04 Y106.394 E5.68519
G1 X123.75 Y106.908 E5.69268
G1 X123.388 Y107.423 E5.70068
G1 X123.008 Y107.864 E5.70807
G1 X122.558 Y108.294 E5.71597
G1 X122.076 Y108.671 E5.72374
G1 X121.562 Y108.997 E5.73147
G1 X121.011 Y109.273 E5.73929
G1 X120.447 Y109.492 E5.74697
G1 X119.871 Y109.652 E5.75457
G1 X119.267 Y109.758 E5.76235
G1 X118.651 Y109.804 E5.77019
G1 X118.05 Y109.788 E5.77783
G1 X117.432 Y109.712 E5.78573
G1 X116.858 Y109.583 E5.7932
G1 X116.282 Y109.395 E5.8009
G1 X115.706 Y109.14 E5.8089
G1 X115.192 Y108.85 E5.81639
G1 X114.677 Y108.488 E5.82438
G1 X114.236 Y108.108 E5.83177
G1 X113.806 Y107.658 E5.83968
G1 X113.429 Y107.176 E5.84745
G1 X113.103 Y106.662 E5.85517
G1 X112.824 Y106.106 E5.86307
G1 X112.608 Y105.547 E5.87068
G1 X112.448 Y104.971 E5.87827
G1 X112.342 Y104.367 E5.88606
G1 X112.296 Y103.751 E5.8939
G1 X112.312 Y103.15 E5.90154
G1 X112.388 Y102.532 E5.90944
G1 X112.517 Y101.958 E5.91691
G1 X112.705 Y101.382 E5.9246
G1 X112.964 Y100.799 E5.9327
G1 X113.25 Y100.292 E5.9401
G1 X113.612 Y99.777 E5.94809
G1 X113.992 Y99.336 E5.95548
G1 X114.442 Y98.906 E5.96338
G1 X114.924 Y98.529 E5.97115
G1 X115.438 Y98.203 E5.97888
G1 X115.989 Y97.927 E5.98671
G1 X116.553 Y97.708 E5.99439
M205 X6
G0 F2400 X117.255 Y100.225
M205 X5
G1 F1200 X117.008 Y100.327 E5.99778
G1 X116.772 Y100.446 E6.00114
G1 X116.543 Y100.582 E6.00452
G1 X116.324 Y100.735 E6.00791
G1 X116.12 Y100.904 E6.01127
G1 X115.929 Y101.084 E6.01461
G1 X115.747 Y101.284 E6.01804
G1 X115.585 Y101.493 E6.0214
G1 X115.436 Y101.715 E6.02479
G1 X115.307 Y101.948 E6.02817
G1 X115.192 Y102.186 E6.03153
G1 X115.097 Y102.438 E6.03495
G1 X115.021 Y102.691 E6.0383
G1 X114.963 Y102.95 E6.04167
G1 X114.925 Y103.211 E6.04502
G1 X114.905 Y103.476 E6.0484
G1 X114.905 Y103.743 E6.05179
G1 X114.927 Y104.01 E6.05519
G1 X114.967 Y104.271 E6.05854
G1 X115.026 Y104.53 E6.06191
G1 X115.104 Y104.783 E6.06528
G1 X115.199 Y105.032 E6.06866
G1 X115.315 Y105.273 E6.07206
G1 X115.448 Y105.505 E6.07545
G1 X115.598 Y105.724 E6.07882
G1 X115.762 Y105.933 E6.08219
G1 X115.943 Y106.128 E6.08557
G1 X116.135 Y106.31 E6.08893
G1 X116.341 Y106.477 E6.0923
G1 X116.562 Y106.63 E6.09571
G1 X116.789 Y106.763 E6.09905
G1 X117.027 Y106.882 E6.10243
G1 X117.276 Y106.982 E6.10584
G1 X117.527 Y107.063 E6.10919
G1 X117.786 Y107.126 E6.11257
G1 X118.051 Y107.169 E6.11598
G1 X118.315 Y107.192 E6.11934
G1 X118.577 Y107.196 E6.12267
G1 X118.845 Y107.181 E6.12608
G1 X119.11 Y107.145 E6.12948
G1 X119.369 Y107.09 E6.13284
G1 X119.623 Y107.017 E6.13619
G1 X119.875 Y106.924 E6.1396
G1 X120.115 Y106.812 E6.14297
G1 X120.347 Y106.686 E6.14632
G1 X120.572 Y106.54 E6.14972
G1 X120.781 Y106.38 E6.15307
G1 X120.982 Y106.205 E6.15645
G1 X121.169 Y106.012 E6.15986
G1 X121.338 Y105.809 E6.16322
G1 X121.495 Y105.593 E6.16661
G1 X121.633 Y105.365 E6.16999
G1 X121.754 Y105.133 E6.17331
G1 X121.86 Y104.884 E6.17675
G1 X121.946 Y104.633 E6.18012
G1 X122.012 Y104.377 E6.18347
G1 X122.06 Y104.116 E6.18684
G1 X122.09 Y103.848 E6.19027
G1 X122.096 Y103.584 E6.19362
G1 X122.086 Y103.32 E6.19698
G1 X122.055 Y103.053 E6.20039
G1 X122.006 Y102.794 E6.20374
G1 X121.936 Y102.537 E6.20712
G1 X121.849 Y102.288 E6.21047
G1 X121.743 Y102.042 E6.21387
G1 X121.618 Y101.807 E6.21725
G1 X121.477 Y101.581 E6.22063
G1 X121.319 Y101.366 E6.22402
G1 X121.148 Y101.166 E6.22736
G1 X120.962 Y100.976 E6.23073
G1 X120.757 Y100.799 E6.23417
G1 X120.546 Y100.643 E6.2375
G1 X120.324 Y100.499 E6.24086
G1 X120.087 Y100.373 E6.24427
G1 X119.847 Y100.265 E6.24761
G1 X119.593 Y100.173 E6.25104
G1 X119.339 Y100.103 E6.25439
G1 X119.163 Y100.067 E6.25667
G1 X118.915 Y100.029 E6.25986
G1 X118.659 Y100.008 E6.26312
G1 X118.394 Y100.005 E6.26648
G1 X118.036 Y100.033 E6.27104
G1 X117.767 Y100.079 E6.27451
G1 X117.51 Y100.142 E6.27787
G1 X117.255 Y100.225 E6.28127
M205 X6
G0 F2400 X117.359 Y100.507
M205 X5
G1 F1200 X117.133 Y100.6 E6.28438
G1 X116.916 Y100.709 E6.28746
G1 X116.706 Y100.834 E6.29056
G1 X116.506 Y100.974 E6.29366
G1 X116.319 Y101.129 E6.29675
G1 X116.143 Y101.295 E6.29982
G1 X115.977 Y101.477 E6.30294
G1 X115.828 Y101.669 E6.30603
G1 X115.692 Y101.872 E6.30913
G1 X115.573 Y102.086 E6.31224
G1 X115.468 Y102.304 E6.31531
G1 X115.381 Y102.534 E6.31844
G1 X115.311 Y102.767 E6.32153
G1 X115.258 Y103.004 E6.32461
G1 X115.223 Y103.244 E6.32769
G1 X115.205 Y103.487 E6.33078
G1 X115.205 Y103.731 E6.33388
G1 X115.225 Y103.975 E6.33699
G1 X115.262 Y104.215 E6.34007
G1 X115.316 Y104.452 E6.34316
G1 X115.388 Y104.685 E6.34626
G1 X115.475 Y104.913 E6.34935
G1 X115.581 Y105.133 E6.35245
G1 X115.702 Y105.345 E6.35555
G1 X115.84 Y105.546 E6.35865
G1 X115.991 Y105.738 E6.36175
G1 X116.156 Y105.917 E6.36484
G1 X116.333 Y106.084 E6.36793
G1 X116.521 Y106.237 E6.37101
G1 X116.723 Y106.377 E6.37413
G1 X116.932 Y106.499 E6.3772
G1 X117.15 Y106.608 E6.3803
G1 X117.378 Y106.7 E6.38342
G1 X117.609 Y106.774 E6.3865
G1 X117.846 Y106.832 E6.3896
G1 X118.088 Y106.871 E6.39271
G1 X118.33 Y106.892 E6.39579
G1 X118.571 Y106.896 E6.39885
G1 X118.816 Y106.882 E6.40197
G1 X119.059 Y106.849 E6.40508
G1 X119.296 Y106.799 E6.40816
G1 X119.529 Y106.732 E6.41124
G1 X119.759 Y106.647 E6.41435
G1 X119.98 Y106.544 E6.41745
G1 X120.194 Y106.428 E6.42054
G1 X120.399 Y106.295 E6.42364
G1 X120.591 Y106.148 E6.42671
G1 X120.775 Y105.987 E6.42982
G1 X120.946 Y105.811 E6.43293
G1 X121.101 Y105.625 E6.43601
G1 X121.245 Y105.427 E6.43911
G1 X121.371 Y105.218 E6.44221
G1 X121.483 Y105.004 E6.44528
G1 X121.58 Y104.777 E6.44841
G1 X121.658 Y104.547 E6.4515
G1 X121.719 Y104.312 E6.45458
G1 X121.763 Y104.072 E6.45768
G1 X121.79 Y103.828 E6.4608
G1 X121.796 Y103.586 E6.46387
G1 X121.787 Y103.343 E6.46696
G1 X121.758 Y103.099 E6.47008
G1 X121.713 Y102.861 E6.47315
G1 X121.649 Y102.626 E6.47624
G1 X121.569 Y102.397 E6.47932
G1 X121.472 Y102.172 E6.48244
G1 X121.358 Y101.957 E6.48552
G1 X121.229 Y101.75 E6.48862
G1 X121.084 Y101.553 E6.49173
G1 X120.927 Y101.369 E6.4948
G1 X120.756 Y101.195 E6.4979
G1 X120.569 Y101.033 E6.50104
G1 X120.375 Y100.89 E6.5041
G1 X120.171 Y100.758 E6.50718
G1 X119.955 Y100.642 E6.5103
G1 X119.734 Y100.543 E6.51337
G1 X119.502 Y100.459 E6.5165
G1 X119.269 Y100.395 E6.51957
G1 X119.11 Y100.362 E6.52163
G1 X118.88 Y100.327 E6.52459
G1 X118.645 Y100.308 E6.52758
G1 X118.404 Y100.305 E6.53064
G1 X118.073 Y100.331 E6.53486
G1 X117.828 Y100.373 E6.53801
G1 X117.592 Y100.431 E6.5411
G1 X117.359 Y100.507 E6.54421
M205 X6
G0 F2400 X117.325 Y100.414
G0 X116.487 Y97.518
G0 X116.456 Y97.424
M205 X5
G1 F1200 X117.06 Y97.256 E6.55217
G1 X117.699 Y97.144 E6.56041
G1 X118.336 Y97.097 E6.56852
G1 X118.964 Y97.11 E6.57649
G1 X119.618 Y97.192 E6.58486
G1 X120.218 Y97.326 E6.59267
G1 X120.827 Y97.525 E6.6008
G1 X121.425 Y97.79 E6.60911
G1 X121.971 Y98.098 E6.61707
G1 X122.507 Y98.475 E6.62539
